src/assets/icons/26.LinkedIn.svg

<svg width="86" height="86" viewBox="0 0 86 86" fill="none" xmlns="http://www.w3.org/2000/svg">
<circle cx="43" cy="43" r="43" fill="#1B88BF"/>
<g clip-path="url(#clip0_513_14)">
<path d="M61.9903 61.9999V61.9982H62.0001V47.695C62.0001 40.6977 60.4937 35.3076 52.3134 35.3076C48.3809 35.3076 45.7419 37.4656 44.6646 39.5115H44.5508V35.9609H36.7947V61.9982H44.8709V49.1055C44.8709 45.7109 45.5144 42.4284 49.7183 42.4284C53.8604 42.4284 53.9222 46.3024 53.9222 49.3232V61.9999H61.9903Z" fill="white"/>
<path d="M23.6436 35.9629H31.7296V62.0003H23.6436V35.9629Z" fill="white"/>
<path d="M27.6832 23C25.0979 23 23 25.0979 23 27.6833C23 30.2686 25.0979 32.4104 27.6832 32.4104C30.2686 32.4104 32.3665 30.2686 32.3665 27.6833C32.3649 25.0979 30.267 23 27.6832 23V23Z" fill="white"/>
</g>
<defs>
<clipPath id="clip0_513_14">
<rect width="39" height="39" fill="white" transform="translate(23 23)"/>
</clipPath>
</defs>
</svg>

<?xml version="1.0" encoding="utf-8"?>
<!-- Generator: Adobe Illustrator 26.0.1, SVG Export Plug-In . SVG Version: 6.00 Build 0)  -->
<svg version="1.1" id="Capa_1" xmlns="http://www.w3.org/2000/svg" xmlns:xlink="http://www.w3.org/1999/xlink" x="0px" y="0px"
	 viewBox="0 0 86 86" style="enable-background:new 0 0 86 86;" xml:space="preserve">
<style type="text/css">
	.st0{fill:#47BDDA;}
	.st1{clip-path:url(#SVGID_00000020384480553784182900000005871447415222422704_);}
	.st2{fill:#FFFFFF;}
</style>
<circle class="st0" cx="43" cy="43" r="43"/>
<g>
	<defs>
		<rect id="SVGID_1_" x="23" y="23" width="39" height="39"/>
	</defs>
	<clipPath id="SVGID_00000085929080603272989310000012494343438103547818_">
		<use xlink:href="#SVGID_1_"  style="overflow:visible;"/>
	</clipPath>
	<g style="clip-path:url(#SVGID_00000085929080603272989310000012494343438103547818_);">
		<path class="st2" d="M62,62L62,62L62,62l0-14.3c0-7-1.5-12.4-9.7-12.4c-3.9,0-6.6,2.2-7.6,4.2h-0.1V36h-7.8v26h8.1V49.1
			c0-3.4,0.6-6.7,4.8-6.7c4.1,0,4.2,3.9,4.2,6.9V62H62z"/>
		<path class="st2" d="M23.6,36h8.1v26h-8.1V36z"/>
		<path class="st2" d="M27.7,23c-2.6,0-4.7,2.1-4.7,4.7c0,2.6,2.1,4.7,4.7,4.7c2.6,0,4.7-2.1,4.7-4.7C32.4,25.1,30.3,23,27.7,23
			L27.7,23z"/>
	</g>
</g>
</svg>
